my_site/img/footer/youtube.svg

<svg width="24" height="18" viewBox="0 0 24 18" fill="none" xmlns="http://www.w3.org/2000/svg">
<g clip-path="url(#clip0)">
<path d="M23.4699 2.93166C23.3335 2.3987 23.0663 1.91276 22.6951 1.52249C22.324 1.13221 21.8619 0.851291 21.355 0.707834C19.4884 0.176636 11.9879 0.176636 11.9879 0.176636C11.9879 0.176636 4.48729 0.176636 2.62071 0.707834C2.11385 0.851291 1.65172 1.13221 1.28057 1.52249C0.90941 1.91276 0.642248 2.3987 0.50582 2.93166C0.157288 4.93335 -0.0118455 6.96501 0.000644257 8.99993C-0.0118455 11.0348 0.157288 13.0665 0.50582 15.0682C0.642248 15.6012 0.90941 16.0871 1.28057 16.4774C1.65172 16.8676 2.11385 17.1486 2.62071 17.292C4.48729 17.8232 11.9879 17.8232 11.9879 17.8232C11.9879 17.8232 19.4884 17.8232 21.355 17.292C21.8619 17.1486 22.324 16.8676 22.6951 16.4774C23.0663 16.0871 23.3335 15.6012 23.4699 15.0682C23.8184 13.0665 23.9876 11.0348 23.9751 8.99993C23.9876 6.96501 23.8184 4.93335 23.4699 2.93166ZM9.59041 12.7813V5.21852L15.8152 8.99993L9.59041 12.7813Z" fill="#E42F08"/>
</g>
<defs>
<clipPath id="clip0">
<rect width="24" height="17.6842" fill="white" transform="translate(0 0.157837)"/>
</clipPath>
</defs>
</svg>

<svg width="24" height="18" fill="none" xmlns="http://www.w3.org/2000/svg"><g clip-path="url(#clip0)"><path d="M23.47 2.932a3.192 3.192 0 00-.775-1.41 2.966 2.966 0 00-1.34-.814C19.488.177 11.988.177 11.988.177s-7.5 0-9.367.53a2.966 2.966 0 00-1.34.815c-.372.39-.639.877-.775 1.41A34.16 34.16 0 000 9a34.161 34.161 0 00.505 6.068c.136.533.403 1.02.775 1.41.37.39.833.67 1.34.814 1.866.531 9.367.531 9.367.531s7.5 0 9.367-.531a2.966 2.966 0 001.34-.815c.371-.39.639-.876.775-1.409.348-2.002.518-4.033.505-6.068a34.163 34.163 0 00-.505-6.068zm-13.88 9.85V5.218l6.225 3.78L9.59 12.78z" fill="#E42F08"/></g><defs><clipPath id="clip0"><path fill="#fff" transform="translate(0 .158)" d="M0 0h24v17.684H0z"/></clipPath></defs></svg>
